X:2173
L:1/8
M:4/4
K:Bmin
 FBBA BcdB | cBAc ecBA | FBBA BcdB | cBAc B2 BA | FBBA BcdB | cBAc ecBA | FAcB Adfd | ceac B2 | 
 Bc |: d2 dc dfed | (3cBA eA fAec | d2 dc def^g | afec dB B2 :|

